flag-minus.svg

<svg  viewBox="0 0 24 24" fill="currentColor"><path  d="M12.4,5H18V15H11L10.6,13H5V20H3V3H12L12.4,5M14,17H22V19H14V17Z"/></svg>

<svg fill="currentColor" viewBox="0 0 24 24"><path d="M12.4 5H18v10h-7l-.4-2H5v7H3V3h9zM14 17h8v2h-8z"/></svg>
